svg/google-chat.svg

<?xml version="1.0" encoding="UTF-8"?>
<svg xmlns="http://www.w3.org/2000/svg" xmlns:xlink="http://www.w3.org/1999/xlink" width="30.683001" height="32" viewBox="0 0 30.683001 32">
<path fill-rule="nonzero" fill="rgb(0%, 67.45098%, 27.843137%)" fill-opacity="1" d="M 6.964844 17.261719 L 6.964844 6.859375 L 2.417969 6.859375 C 1.082031 6.863281 0 7.949219 0 9.285156 L 0 30.785156 C 0 31.867188 1.304688 32.40625 2.066406 31.644531 L 7.066406 26.644531 L 21.300781 26.644531 C 22.636719 26.644531 23.71875 25.5625 23.71875 24.226562 L 23.71875 19.679688 L 9.390625 19.679688 C 8.746094 19.683594 8.128906 19.429688 7.675781 18.972656 C 7.214844 18.523438 6.960938 17.90625 6.964844 17.261719 "/>
<path fill-rule="nonzero" fill="rgb(35.686275%, 72.54902%, 45.490196%)" fill-opacity="1" d="M 28.261719 0 L 9.390625 0 C 8.746094 -0.00390625 8.128906 0.25 7.675781 0.707031 C 7.21875 1.160156 6.964844 1.777344 6.96875 2.421875 L 6.96875 6.863281 L 21.300781 6.863281 C 21.941406 6.863281 22.554688 7.117188 23.007812 7.570312 C 23.460938 8.023438 23.714844 8.640625 23.714844 9.28125 L 23.714844 19.675781 L 28.261719 19.675781 C 28.902344 19.675781 29.515625 19.421875 29.972656 18.96875 C 30.425781 18.511719 30.679688 17.898438 30.679688 17.253906 L 30.679688 2.417969 C 30.679688 1.777344 30.425781 1.160156 29.972656 0.707031 C 29.519531 0.253906 28.902344 0 28.261719 0 "/>
<path fill-rule="nonzero" fill="rgb(0%, 51.372549%, 17.647059%)" fill-opacity="1" d="M 21.300781 6.859375 L 6.964844 6.859375 L 6.964844 17.253906 C 6.964844 18.589844 8.046875 19.675781 9.382812 19.675781 L 23.714844 19.675781 L 23.714844 9.285156 C 23.71875 8.644531 23.464844 8.027344 23.011719 7.570312 C 22.558594 7.113281 21.941406 6.859375 21.300781 6.859375 "/>
</svg>

<svg role="img" viewBox="0 0 30.683 32" height="32" width="30.683" xmlns="http://www.w3.org/2000/svg"><path d="M6.965 17.262V6.859H2.418A2.426 2.426 0 0 0 0 9.285v21.5c0 1.082 1.305 1.621 2.066.86l5-5h14.235a2.417 2.417 0 0 0 2.418-2.418V19.68H9.39a2.391 2.391 0 0 1-1.715-.707 2.38 2.38 0 0 1-.711-1.711" fill="rgb(0%, 67.45098%, 27.843137%)"/><path d="M28.262 0H9.39a2.391 2.391 0 0 0-1.715.707 2.391 2.391 0 0 0-.707 1.715v4.441H21.3a2.412 2.412 0 0 1 2.414 2.418v10.395h4.547c.64 0 1.254-.254 1.71-.707a2.43 2.43 0 0 0 .708-1.715V2.418c0-.64-.254-1.258-.707-1.711A2.422 2.422 0 0 0 28.262 0" fill="rgb(35.686275%, 72.54902%, 45.490196%)"/><path d="M21.3 6.86H6.966v10.394a2.42 2.42 0 0 0 2.418 2.422h14.332V9.286A2.417 2.417 0 0 0 21.3 6.858" fill="rgb(0%, 51.372549%, 17.647059%)"/></svg>
